public/static/img/crypto/ETC.svg

<svg width="48" height="48" viewBox="0 0 48 48" fill="none" xmlns="http://www.w3.org/2000/svg">
<g clip-path="url(#clip0_1168_4674)">
<path d="M47.957 23.9919C47.957 37.1812 37.2657 47.8725 24.0764 47.8725C10.8876 47.8725 0.195801 37.1812 0.195801 23.9919C0.195801 10.8029 10.8876 0.111328 24.0764 0.111328C37.2657 0.111328 47.957 10.8029 47.957 23.9919Z" fill="#659172"/>
<path d="M14.7312 26.8906L23.9299 31.4965V38.9027L14.7312 26.8906ZM33.7235 26.8906L24.492 38.9029V31.4965L33.7235 26.8906Z" fill="white"/>
<path d="M34.3458 21.3397L24.1979 5.28516L13.7571 21.3397L24.1979 17.0117L34.3458 21.3397ZM14.168 25.762L24.3159 41.4802L34.7568 25.762L24.3159 32.0111L14.168 25.762Z" fill="white"/>
<path d="M34.7566 23.698L24.1976 19.2988L13.7567 23.698L24.1976 29.9511L34.7566 23.698Z" fill="white"/>
</g>
<defs>
<clipPath id="clip0_1168_4674">
<rect width="48" height="48" fill="white"/>
</clipPath>
</defs>
</svg>

<svg width="48" height="48" fill="none" xmlns="http://www.w3.org/2000/svg"><g clip-path="url(#a)"><path d="M47.957 23.992c0 13.19-10.691 23.88-23.88 23.88-13.19 0-23.881-10.69-23.881-23.88S10.888.112 24.076.112c13.19 0 23.881 10.69 23.881 23.88Z" fill="#659172"/><path d="m14.731 26.89 9.199 4.607v7.406l-9.2-12.013Zm18.992 0-9.231 12.013v-7.406l9.232-4.606Z" fill="#fff"/><path d="M34.346 21.34 24.198 5.285 13.758 21.34l10.44-4.328 10.148 4.328Zm-20.178 4.422L24.316 41.48l10.44-15.718-10.44 6.25-10.148-6.25Z" fill="#fff"/><path d="m34.757 23.698-10.56-4.4-10.44 4.4 10.44 6.253 10.56-6.253Z" fill="#fff"/></g><defs><clipPath id="a"><path fill="#fff" d="M0 0h48v48H0z"/></clipPath></defs></svg>
